Adwaita++-Dark/actions/22/format-node-corner.svg

<svg height="22" viewBox="0 0 22 22" width="22" xmlns="http://www.w3.org/2000/svg">
  <path d="m2.5 1c-.82843 0-1.5.67157-1.5 1.5.00089.6349.40141 1.2005094 1 1.4121094v8.0878906h-1v3h3v-3h-1v-8.0878906c.42591-.15111.7609994-.4861994.9121094-.9121094h8.0878906v1h3v-3h-3v1h-8.0878906c-.21163-.59859-.7772194-.99911-1.4121094-1z" fill="#e6ddff" transform="translate(3 3)"/>
</svg>

<svg xmlns="http://www.w3.org/2000/svg" width="22" height="22" viewBox="0 0 22 22">
 <defs>
  <style id="current-color-scheme" type="text/css">
   .ColorScheme-Text { color:#E6DDFF; } .ColorScheme-Highlight { color:#4285f4; }
  </style>
 </defs>
 <path style="fill:currentColor" class="ColorScheme-Text" d="M 2.5 1 C 1.67157 1 1 1.67157 1 2.5 C 1.00089 3.1349 1.40141 3.7005094 2 3.9121094 L 2 12 L 1 12 L 1 15 L 4 15 L 4 12 L 3 12 L 3 3.9121094 C 3.42591 3.7609994 3.7609994 3.42591 3.9121094 3 L 12 3 L 12 4 L 15 4 L 15 1 L 12 1 L 12 2 L 3.9121094 2 C 3.7004794 1.40141 3.13489 1.00089 2.5 1 z" transform="translate(3 3)"/>
</svg>
